shared/asterisque.svg

<svg xmlns="http://www.w3.org/2000/svg" xmlns:xlink="http://www.w3.org/1999/xlink" width="500" zoomAndPan="magnify" viewBox="0 0 375 374.999991" height="500" preserveAspectRatio="xMidYMid meet" version="1.0"><defs><clipPath id="c7c932d9f0"><path d="M 68.632812 112 L 85.132812 112 L 85.132812 129.933594 L 68.632812 129.933594 Z M 68.632812 112 " clip-rule="nonzero"/></clipPath></defs><g clip-path="url(#c7c932d9f0)"><path fill="#000000" d="M 77.792969 129.863281 L 75.925781 129.863281 C 75.667969 129.863281 75.457031 129.652344 75.457031 129.390625 L 75.457031 123.390625 L 70.265625 126.371094 C 70.042969 126.5 69.761719 126.421875 69.632812 126.199219 L 68.695312 124.601562 C 68.632812 124.496094 68.617188 124.367188 68.648438 124.246094 C 68.679688 124.125 68.757812 124.019531 68.867188 123.957031 L 74.058594 120.933594 L 68.867188 117.910156 C 68.757812 117.847656 68.679688 117.746094 68.648438 117.625 C 68.617188 117.503906 68.632812 117.375 68.695312 117.265625 L 69.632812 115.667969 C 69.761719 115.445312 70.042969 115.371094 70.265625 115.5 L 75.457031 118.480469 L 75.457031 112.476562 C 75.457031 112.21875 75.667969 112.007812 75.925781 112.007812 L 77.792969 112.007812 C 78.050781 112.007812 78.261719 112.21875 78.261719 112.476562 L 78.261719 118.480469 L 83.453125 115.5 C 83.675781 115.371094 83.957031 115.445312 84.085938 115.667969 L 85.019531 117.265625 C 85.085938 117.375 85.101562 117.503906 85.070312 117.625 C 85.039062 117.746094 84.960938 117.847656 84.851562 117.910156 L 79.660156 120.933594 L 84.851562 123.957031 C 84.960938 124.019531 85.039062 124.125 85.070312 124.246094 C 85.101562 124.367188 85.082031 124.496094 85.019531 124.601562 L 84.085938 126.199219 C 83.957031 126.421875 83.671875 126.5 83.453125 126.371094 L 78.261719 123.390625 L 78.261719 129.390625 C 78.261719 129.652344 78.050781 129.863281 77.792969 129.863281 Z M 77.792969 129.863281 " fill-opacity="1" fill-rule="nonzero"/></g><path fill="#ae8cfa" d="M 356.546875 235.617188 L 273.210938 187.5 L 356.546875 139.382812 C 364.660156 134.699219 367.445312 124.308594 362.761719 116.199219 L 337.300781 72.101562 C 332.617188 63.988281 322.246094 61.207031 314.117188 65.890625 L 230.78125 114.007812 L 230.78125 17.773438 C 230.78125 8.402344 223.175781 0.800781 213.808594 0.800781 L 162.890625 0.800781 C 153.519531 0.800781 145.917969 8.402344 145.917969 17.773438 L 145.917969 114.007812 L 62.582031 65.890625 C 54.449219 61.207031 44.082031 63.988281 39.394531 72.101562 L 13.9375 116.199219 C 9.253906 124.308594 12.019531 134.699219 20.148438 139.382812 L 103.484375 187.5 L 20.148438 235.617188 C 12.035156 240.300781 9.253906 250.691406 13.9375 258.800781 L 39.394531 302.898438 C 44.082031 311.011719 54.46875 313.792969 62.582031 309.109375 L 145.917969 260.992188 L 145.917969 357.226562 C 145.917969 366.597656 153.519531 374.199219 162.890625 374.199219 L 213.808594 374.199219 C 223.175781 374.199219 230.78125 366.597656 230.78125 357.226562 L 230.78125 260.992188 L 314.117188 309.109375 C 322.230469 313.792969 332.617188 311.011719 337.300781 302.898438 L 362.761719 258.800781 C 367.445312 250.691406 364.679688 240.300781 356.546875 235.617188 Z M 356.546875 235.617188 " fill-opacity="1" fill-rule="nonzero"/></svg>

<svg xmlns="http://www.w3.org/2000/svg" width="500" height="500" version="1.0" viewBox="0 0 375 375"><defs><clipPath id="a"><path d="M68.633 112h16.5v17.934h-16.5Zm0 0"/></clipPath></defs><g clip-path="url(#a)"><path d="M77.793 129.863h-1.867a.471.471 0 0 1-.469-.472v-6l-5.191 2.98a.462.462 0 0 1-.633-.172l-.938-1.597a.469.469 0 0 1-.047-.356.467.467 0 0 1 .22-.289l5.19-3.023-5.19-3.024a.46.46 0 0 1-.22-.285.481.481 0 0 1 .047-.36l.938-1.597a.46.46 0 0 1 .633-.168l5.191 2.98v-6.003a.47.47 0 0 1 .469-.47h1.867a.47.47 0 0 1 .469.47v6.003l5.191-2.98a.46.46 0 0 1 .633.168l.934 1.598a.465.465 0 0 1-.168.644l-5.192 3.024 5.192 3.023a.467.467 0 0 1 .168.645l-.934 1.597a.463.463 0 0 1-.633.172l-5.191-2.98v6c0 .261-.211.472-.469.472Zm0 0"/></g><path fill="#ae8cfa" d="M356.547 235.617 273.21 187.5l83.336-48.117c8.113-4.684 10.898-15.074 6.215-23.184L337.3 72.102c-4.684-8.114-15.055-10.895-23.184-6.211l-83.336 48.117V17.773c0-9.37-7.605-16.972-16.972-16.972H162.89c-9.371 0-16.973 7.601-16.973 16.972v96.235L62.582 65.89c-8.133-4.684-18.5-1.903-23.187 6.21L13.937 116.2c-4.683 8.11-1.917 18.5 6.211 23.184l83.336 48.117-83.336 48.117c-8.113 4.684-10.894 15.074-6.21 23.184l25.457 44.097c4.687 8.114 15.074 10.895 23.187 6.211l83.336-48.117v96.235c0 9.37 7.602 16.972 16.973 16.972h50.918c9.367 0 16.972-7.601 16.972-16.972v-96.235l83.336 48.117c8.113 4.684 18.5 1.903 23.184-6.21l25.46-44.098c4.684-8.11 1.919-18.5-6.214-23.184Zm0 0"/></svg>
